X:347
T: HANS NABER ICH HEBB
N: E1503
O: Europa, Mitteleuropa, Deutschland, Insel Ruegen, Insel Hiddensee
R: Staende -, Seemanns - Lied; Trink - Lied
M: 3/8
L: 1/16
K: A
E2 | A3=GA2 | A3B=c2 | B4G2 | E4
E2 | B3AB2 | B3=cd2 | d4B2 | A4
e2 | =f2e2^d2 | e2z2e2 | =f2e2^d2 | e2z2
e2 | =c3BA2 | =f3ed2 | B3AG2 | A4

@@@ Tune index: 5031
